src/assets/img/cardArrow.svg

<svg width="16" height="10" viewBox="0 0 16 10" fill="none" xmlns="http://www.w3.org/2000/svg">
<path fill-rule="evenodd" clip-rule="evenodd" d="M0 5C0 4.85268 0.0602 4.71139 0.167357 4.60722C0.274514 4.50305 0.41985 4.44452 0.571392 4.44452L14.0482 4.44452L10.4519 0.949457C10.3446 0.845154 10.2843 0.703687 10.2843 0.556179C10.2843 0.408671 10.3446 0.267204 10.4519 0.162901C10.5592 0.0585966 10.7047 0 10.8565 0C11.0082 0 11.1537 0.0585966 11.261 0.162901L15.8321 4.60672C15.8853 4.65832 15.9276 4.71962 15.9564 4.7871C15.9852 4.85459 16 4.92694 16 5C16 5.07306 15.9852 5.14541 15.9564 5.2129C15.9276 5.28038 15.8853 5.34168 15.8321 5.39328L11.261 9.8371C11.1537 9.9414 11.0082 10 10.8565 10C10.7047 10 10.5592 9.9414 10.4519 9.8371C10.3446 9.7328 10.2843 9.59133 10.2843 9.44382C10.2843 9.29631 10.3446 9.15485 10.4519 9.05054L14.0482 5.55548L0.571392 5.55548C0.41985 5.55548 0.274514 5.49695 0.167357 5.39278C0.0602 5.28861 0 5.14732 0 5Z" fill="#DEDEDE"/>
</svg>

<svg width="16" height="10" fill="none" xmlns="http://www.w3.org/2000/svg"><path fill-rule="evenodd" clip-rule="evenodd" d="M0 5c0-.15.06-.29.17-.4.1-.1.25-.16.4-.16h13.48l-3.6-3.5a.55.55 0 0 1 0-.78.58.58 0 0 1 .81 0l4.57 4.45A.56.56 0 0 1 16 5a.54.54 0 0 1-.17.4l-4.57 4.44a.58.58 0 0 1-.8 0 .55.55 0 0 1 0-.79l3.59-3.5H.57a.58.58 0 0 1-.4-.16A.55.55 0 0 1 0 5Z" fill="#DEDEDE"/></svg>
